X:1
T:Blueberry Cake
C:© Paul Gitlitz 2002
L:1/8
M:2/2
I:linebreak $
K:C
V:1 treble 
V:1
"C" e2 ee eeee |"C" e2 d2 c4 |"C" e2 ee e2 ee |"Am" e2 a2"G" g4 |$"C" e2 e2- e2 ee |"C" e2 d2 c4 | %6
"C" eage"G7" d2 B2 |"C" c8 ::$"C" c2 Gc E c2 G |"C" c2 Gc E c2 G |"C" c2 Gc E c2 G | %11
"Am" e2 a e"G" g e2 d |$"C" c2 Gc E c2 G |"C" c2 Gc E c2 G |"C" eage"G7" d2 B2 |"C" c8 :| %16
